X:100
T:Gratulantès
Z:Transcrit et/ou corrigé par B@D - 2005-03-15
Z:Pour toute observation mailto:-@-
M:2/4
L:1/8
K:D
%%continueall 1
%%staves [1 2]
V:1
D2FE | G2BA | AF GE | ED DF | E/F/E/C/ D2 | A2 (3BAF | (3FEG BA | 
AF GE | ED DF | EFEC | D4 | A2 (3BAF | (3FEG BA | AF GE | ED AB |
D/E/F/G/ FE | D2z2 | D2EF | ECA2 | AF GE | ED EF | EFEC | D4 |
FGA2 | A/B/A/G/ (3GFA | (3FFE D2 | FGA2 | BcD2 | FGA2 | A/B/A/G/ (3GFA | (3FFE D2 |
FGA2 |B3c | D4 || FGA2 | A/B/A/G/ (3GFA | F2ED | D2d2 | ((3Bcd c/B/A/B/) | 
A2z2 | D2EF | ECA2 | AFGE | ED DF | EFEC | D4 |
(3GAB GA |(3FGA FG | (3EFG EF | DAd2 | B2 d2 | A3B | d4 |]
V:2
A2F2 | E2D2 |F2G2 | A2F2 | E2D2 | A2B2 | A2F2 |
w:Gra-tu-lan-tès ce-le-bre-mus fes-tum' di-em lu-ce
B2G2 | A2F2 | E4 | D4 | D2F2 | E2D2 | F2G2 | A2D2 |
w:di-vi-na ho-nes-tum 2.Hec est di-es Ja-co-bi, in
F2G2 | A2z2 | d2B2 | c2A2 | B2G2 | A2F2 | E4 | D4 |
w:si-_gnis il-lus-tra-ta si-gnis e-jus di-gnis
F2D2 | G2E2 | FGA2 | F2D2 | E2D2 | F2D2 | G2E2 | FGA2 |
w:3.Quem pre-ca-mus du-_cat ut ad cel-los de-can-tan-tes e-_jus
F2D2 |[F4B,4] | D4 | A2F2 |B2G2 | F2G2 | A2D2 | F2G2 |
w:chris-to me-los 4.~Sus-ci-pi-ens gra-ci-am de ce- 
A2z2 | d2B2 | c2A2 | B2G2 | A2F2 | e4 | d4 |
w:lis Be-ne-di-cat er-go plebs fi-de-lis
(3dcB cA | (3cBA BG | (3BAG AF | A2G2 | E2F2 | E4 | D4 |]




%%header "$P0	 $IR 	$P1"
%%footer $D - Éditions Galouvielle - 2009 - À usage librement privé dans le cadre familial

